X: 32
T: Garry Owen
P: piffero primo b0075
O: safd 024
F: http://ancients.sudburymuster.org/mus/med/pdf/fyf05F.pdf
Z: 2020 John Chambers <jc:trillian.mit.edu>
M: 6/8
L: 1/8
K: G
g/f/ |\
edc BAG | BcB B2 g/f/ | edc BAG | ABA A2 g/f/ |\
edc BAG | BcB B2c | def gdB | B>AA A2 :|
|: B/c/ |\
d2B d2B | d2B dgf | e2c e2c | e2c e2f |\
g2a b2a | gfe d2B | def gdB | A>BA A2 :|


